src/assets/icons/math-symbols,simple,exclamation.svg

<svg width="48" height="48" viewBox="0 0 48 48" fill="none" xmlns="http://www.w3.org/2000/svg">
<rect opacity="0.2" x="5" y="5" width="38" height="38" rx="4" fill="black"/>
<path d="M26.4494 13.4545H21.5506L21.9909 29.2408H26.0201L26.4494 13.4545ZM24.0055 36.2862C25.4146 36.2862 26.6365 35.1083 26.6476 33.6442C26.6365 32.2021 25.4146 31.0241 24.0055 31.0241C22.5524 31.0241 21.3525 32.2021 21.3635 33.6442C21.3525 35.1083 22.5524 36.2862 24.0055 36.2862Z" fill="black"/>
</svg>

<svg xmlns="http://www.w3.org/2000/svg" width="48" height="48" fill="none" viewBox="0 0 48 48">
  <rect width="38" height="38" x="5" y="5" fill="#000" opacity=".2" rx="4"/>
  <path fill="#000" d="M26.45 13.454h-4.9l.44 15.787h4.03l.43-15.787zm-2.444 22.832c1.409 0 2.63-1.178 2.642-2.642-.011-1.442-1.233-2.62-2.642-2.62-1.454 0-2.654 1.178-2.643 2.62-.01 1.464 1.19 2.642 2.643 2.642z"/>
</svg>
